icons/op-news-24.svg

<svg width="24" height="24" viewBox="0 0 24 24" fill="none" xmlns="http://www.w3.org/2000/svg">
<path d="M18.4425 5C18.4425 5 15.7679 7.76056 12.9046 8.18779C12.6214 9.04225 12.4326 9.96244 12.4326 10.9155C12.4326 11.8685 12.6214 12.7887 12.9046 13.6761C15.7679 14.0704 18.4425 16.8638 18.4425 16.8638C20.5192 13.6103 20.5192 8.22066 18.4425 5ZM11.2055 16.8638C10.6706 16.3052 10.4189 14.8592 10.4503 13.6103H11.2055V10.3897V8.22066H6.04523C4.91249 8.22066 4 9.43662 4 10.9155C4 12.3944 4.91249 13.6103 6.04523 13.6103H7.55556C7.83874 14.3005 8.12193 15.1878 8.12193 15.7793C8.12193 16.8638 9.16028 19 10.1986 19C11.2055 19 12.2439 17.9155 11.2055 16.8638ZM6.04523 12.5258C5.47886 12.5258 5.03835 11.9343 5.03835 11.1784C5.03835 10.4554 5.47886 9.83099 6.04523 9.83099V12.5258Z" fill="black"/>
</svg>

<svg xmlns="http://www.w3.org/2000/svg" width="24" height="24" viewBox="0 0 24 24"><path d="M18.442 5s-2.674 2.761-5.537 3.188c-.284.854-.472 1.774-.472 2.727 0 .953.188 1.874.472 2.761 2.863.394 5.537 3.188 5.537 3.188 2.077-3.254 2.077-8.643 0-11.864Zm-7.236 11.864c-.535-.559-.787-2.005-.756-3.254h.756V8.221H6.045C4.912 8.221 4 9.437 4 10.915c0 1.479.912 2.695 2.045 2.695h1.511c.283.69.566 1.578.566 2.169C8.122 16.864 9.16 19 10.199 19c1.007 0 2.045-1.084 1.007-2.136Zm-5.161-4.338c-.566 0-1.007-.592-1.007-1.348 0-.723.441-1.347 1.007-1.347v2.695Z"/></svg>
